X:1269
L:1/8
Q:1/4=120
M:2/2
K:G
"^Quick" (G ||S D2) G2 GGBB | AF-FF F2 AB | cccc eddd | BG-GG G2 G2 | D4 G2 G2 | AF-FF F2 AB | 
 cccc eddd | BG-GG G2 GG | DDDD GGBB | AF-FF F2 AB | cccc eddd | BG-GG G4 | D4 G2 G2 | 
 AF-FF F2 AB | c2 c2 eddd |[M:3/2] BG-GG G4 || Ddef |[M:2/2] g2 g2 fd d2 | =f4 d2 e^f | 
 g2 g2 d2 c2 |[M:3/2] B2 G2- G4 Ddef | g2 g2 d2 e2 | =f4 =g4 | c2 B2 A2 G2 |[M:2/4] G4S ||

